;FLAVOR:Marlin
;TIME:10114
;Filament used: 11.3834m
;Layer height: 0.28
;MINX:78.359
;MINY:45.872
;MINZ:0.28
;MAXX:156.66
;MAXY:189.128
;MAXZ:22.12
;TARGET_MACHINE.NAME:Creality Ender-3
;Generated with Cura_SteamEngine 5.9.0
M140 S65
M105
M190 S65
M104 S210
M105
M109 S210
M82 ;absolute extrusion mode
; Ender 3 Custom Start G-code
G92 E0 ; Reset Extruder
G28 ; Home all axes
G1 Z2.0 F3000 ; Move Z Axis up little to prevent scratching of Heat Bed
G1 X0.1 Y20 Z0.3 F5000.0 ; Move to start position
G1 X0.1 Y200.0 Z0.3 F1500.0 E15 ; Draw the first line
G1 X0.4 Y200.0 Z0.3 F5000.0 ; Move to side a little
G1 X0.4 Y20 Z0.3 F1500.0 E30 ; Draw the second line
G92 E0 ; Reset Extruder
G1 Z2.0 F3000 ; Move Z Axis up little to prevent scratching of Heat Bed
G1 X5 Y20 Z0.3 F5000.0 ; Move over to prevent blob squish
G92 E0
G92 E0
G1 F2700 E-5
;LAYER_COUNT:79
;LAYER:0
M107
G0 F6000 X78.995 Y78.054 Z0.28
;TYPE:SKIRT
G1 F2700 E0
G1 F1200 X79.241 Y76.819 E0.07036
G1 X79.417 Y75.999 E0.11723
G1 X79.575 Y75.366 E0.15368
G1 X80.032 Y73.743 E0.2479
G1 X80.312 Y72.832 E0.30115
G1 X80.494 Y72.289 E0.33315
G1 X81.24 Y70.289 E0.45243
G1 X81.44 Y69.805 E0.48169
G1 X81.739 Y69.129 E0.52299
G1 X82.169 Y68.196 E0.5804
G1 X82.538 Y67.428 E0.62801
G1 X82.806 Y66.906 E0.66079
G1 X83.535 Y65.582 E0.74525
G1 X84.084 Y64.637 E0.80631
G1 X84.41 Y64.113 E0.8408
G1 X85.213 Y62.908 E0.92171
G1 X85.903 Y61.921 E0.989
G1 X86.233 Y61.476 E1.01996
G1 X87.006 Y60.491 E1.08992
G1 X87.697 Y59.643 E1.15104
G1 X88.101 Y59.178 E1.18546
G1 X89.126 Y58.062 E1.27013
G1 X89.664 Y57.497 E1.31373
G1 X90.115 Y57.051 E1.34917
G1 X91.359 Y55.89 E1.44425
G1 X91.898 Y55.405 E1.48477
G1 X92.384 Y54.995 E1.52029
G1 X93.724 Y53.931 E1.6159
G1 X94.662 Y53.227 E1.68144
G1 X95.059 Y52.949 E1.70852
G1 X96.255 Y52.147 E1.78898
G1 X96.939 Y51.706 E1.83445
G1 X97.482 Y51.38 E1.86984
G1 X98.876 Y50.595 E1.95924
G1 X99.529 Y50.242 E2.00072
G1 X100.088 Y49.959 E2.03573
G1 X101.657 Y49.229 E2.13242
G1 X102.465 Y48.874 E2.18174
G1 X103.038 Y48.643 E2.21626
G1 X104.479 Y48.108 E2.30215
G1 X105.554 Y47.739 E2.36565
G1 X106.229 Y47.533 E2.40509
G1 X107.429 Y47.195 E2.47475
G1 X108.253 Y46.978 E2.52236
G1 X108.866 Y46.834 E2.55755
G1 X110.4 Y46.527 E2.64496
G1 X111.299 Y46.364 E2.69602
G1 X111.913 Y46.272 E2.73071
G1 X113.438 Y46.091 E2.81652
G1 X114.186 Y46.014 E2.85853
G1 X114.688 Y45.974 E2.88667
G1 X115.466 Y45.931 E2.93021
G1 X116.589 Y45.889 E2.99301
G1 X117.425 Y45.872 E3.03973
G1 X118.033 Y45.877 E3.0737
G1 X119.665 Y45.939 E3.16496
G1 X120.536 Y45.991 E3.21372
G1 X121.124 Y46.041 E3.24669
G1 X122.415 Y46.189 E3.3193
G1 X123.545 Y46.339 E3.38299
G1 X124.173 Y46.444 E3.41857
G1 X125.662 Y46.737 E3.50337
G1 X126.48 Y46.912 E3.55011
G1 X127.123 Y47.072 E3.58713
G1 X128.686 Y47.511 E3.67785
G1 X129.794 Y47.852 E3.74263
G1 X130.56 Y48.121 E3.78799
G1 X132.145 Y48.715 E3.88257
G1 X132.824 Y48.996 E3.92363
G1 X134.45 Y49.739 E4.02353
G1 X135.23 Y50.117 E4.07196
G1 X135.762 Y50.394 E4.10547
G1 X137.096 Y51.135 E4.19074
G1 X137.711 Y51.491 E4.23045
G1 X138.172 Y51.773 E4.26064
G1 X138.672 Y52.097 E4.29393
G1 X140.213 Y53.14 E4.39791
G1 X140.636 Y53.442 E4.42695
G1 X141.051 Y53.755 E4.456
G1 X142.157 Y54.623 E4.53456
G1 X142.855 Y55.194 E4.58495
G1 X143.328 Y55.606 E4.62
G1 X144.304 Y56.502 E4.69403
G1 X144.991 Y57.153 E4.74691
G1 X145.45 Y57.617 E4.78338
G1 X146.626 Y58.881 E4.87985
G1 X147.215 Y59.542 E4.92932
G1 X147.612 Y60.012 E4.9637
G1 X148.566 Y61.221 E5.04975
G1 X149.278 Y62.17 E5.11605
G1 X149.67 Y62.733 E5.15438
G1 X150.349 Y63.751 E5.22276
G1 X150.796 Y64.443 E5.26879
G1 X151.121 Y64.981 E5.30391
G1 X151.895 Y66.354 E5.39198
G1 X152.45 Y67.4 E5.45814
G1 X152.739 Y67.997 E5.49521
G1 X153.284 Y69.184 E5.56819
G1 X153.621 Y69.95 E5.61495
G1 X153.851 Y70.52 E5.64929
G1 X154.435 Y72.097 E5.74326
G1 X154.732 Y72.964 E5.79447
G1 X154.9 Y73.498 E5.82575
G1 X155.252 Y74.735 E5.89761
G1 X155.524 Y75.764 E5.95709
G1 X155.668 Y76.378 E5.99233
G1 X155.982 Y77.942 E6.08146
G1 X156.144 Y78.857 E6.13338
G1 X156.231 Y79.442 E6.16643
G1 X156.407 Y80.918 E6.24949
G1 X156.487 Y81.678 E6.29219
G1 X156.532 Y82.27 E6.32537
G1 X156.598 Y83.744 E6.40781
G1 X156.641 Y85.993 E6.5335
G1 X156.64 Y117.37 E8.28675
G1 X156.66 Y119.497 E8.40561
G1 X156.66 Y133.126 E9.16716
G1 X156.641 Y135.157 E9.28065
G1 X156.637 Y149.296 E10.0707
G1 X156.595 Y151.34 E10.18493
G1 X156.51 Y153.017 E10.27876
G1 X156.455 Y153.672 E10.31549
G1 X156.277 Y155.196 E10.40122
G1 X156.162 Y156.039 E10.44876
G1 X156.062 Y156.636 E10.48259
G1 X155.769 Y158.131 E10.56771
G1 X155.591 Y158.968 E10.61553
G1 X155.429 Y159.622 E10.65317
G1 X154.985 Y161.198 E10.74466
G1 X154.69 Y162.162 E10.801
G1 X154.506 Y162.711 E10.83335
G1 X154.074 Y163.889 E10.90346
G1 X153.764 Y164.701 E10.95202
G1 X153.509 Y165.312 E10.98902
G1 X152.873 Y166.708 E11.07474
G1 X152.48 Y167.536 E11.12595
G1 X152.263 Y167.965 E11.15281
G1 X151.904 Y168.632 E11.19514
G1 X151.433 Y169.474 E11.24905
G1 X150.933 Y170.335 E11.30468
G1 X150.593 Y170.881 E11.34062
G1 X149.693 Y172.233 E11.43138
G1 X149.046 Y173.15 E11.49409
G1 X148.608 Y173.728 E11.53461
G1 X147.881 Y174.651 E11.60026
G1 X147.307 Y175.352 E11.65089
G1 X146.894 Y175.828 E11.6861
G1 X145.998 Y176.804 E11.76013
G1 X145.359 Y177.479 E11.81207
G1 X144.896 Y177.94 E11.84858
G1 X143.813 Y178.952 E11.9314
G1 X142.957 Y179.717 E11.99555
G1 X142.484 Y180.113 E12.03002
G1 X141.29 Y181.059 E12.11514
G1 X140.35 Y181.765 E12.18083
G1 X139.714 Y182.205 E12.22404
G1 X138.252 Y183.173 E12.32202
G1 X137.625 Y183.558 E12.36313
G1 X136.148 Y184.394 E12.45796
G1 X135.474 Y184.759 E12.50079
G1 X134.907 Y185.043 E12.53622
G1 X133.348 Y185.768 E12.6323
G1 X132.54 Y186.124 E12.68163
G1 X131.957 Y186.36 E12.71678
G1 X130.521 Y186.892 E12.80235
G1 X129.446 Y187.261 E12.86585
G1 X128.771 Y187.467 E12.90529
G1 X127.571 Y187.805 E12.97495
G1 X126.747 Y188.022 E13.02256
G1 X126.134 Y188.166 E13.05775
G1 X124.6 Y188.473 E13.14516
G1 X123.701 Y188.636 E13.19621
G1 X123.087 Y188.728 E13.23091
G1 X121.562 Y188.909 E13.31672
G1 X120.814 Y188.986 E13.35873
G1 X120.312 Y189.026 E13.38687
G1 X119.534 Y189.069 E13.43041
G1 X118.411 Y189.111 E13.49321
G1 X117.575 Y189.128 E13.53993
G1 X116.967 Y189.123 E13.5739
G1 X115.335 Y189.061 E13.66516
G1 X114.464 Y189.009 E13.71392
G1 X113.876 Y188.959 E13.74689
G1 X112.585 Y188.811 E13.8195
G1 X111.455 Y188.661 E13.88319
G1 X110.827 Y188.556 E13.91877
G1 X109.338 Y188.263 E14.00357
G1 X108.52 Y188.088 E14.05031
G1 X107.877 Y187.928 E14.08733
G1 X106.314 Y187.489 E14.17805
G1 X105.206 Y187.148 E14.24283
G1 X104.44 Y186.879 E14.28819
G1 X102.855 Y186.285 E14.38277
G1 X102.176 Y186.004 E14.42383
G1 X100.55 Y185.261 E14.52373
G1 X99.769 Y184.883 E14.57221
G1 X99.238 Y184.606 E14.60567
G1 X97.898 Y183.86 E14.69137
G1 X97.278 Y183.501 E14.7314
G1 X96.824 Y183.224 E14.76112
G1 X96.33 Y182.903 E14.79404
G1 X94.774 Y181.848 E14.89908
G1 X94.37 Y181.561 E14.92677
G1 X93.959 Y181.252 E14.95551
G1 X92.361 Y179.983 E15.06953
G1 X91.809 Y179.513 E15.11004
G1 X90.582 Y178.391 E15.20294
G1 X90.008 Y177.847 E15.24713
G1 X89.549 Y177.383 E15.2836
G1 X88.401 Y176.152 E15.37765
G1 X87.899 Y175.593 E15.41964
G1 X87.498 Y175.117 E15.45441
G1 X86.578 Y173.965 E15.53679
G1 X85.98 Y173.183 E15.5918
G1 X85.725 Y172.835 E15.61591
G1 X85.328 Y172.263 E15.65481
G1 X84.65 Y171.247 E15.72306
G1 X84.209 Y170.563 E15.76854
G1 X83.885 Y170.029 E15.80344
G1 X83.197 Y168.813 E15.88151
G1 X82.742 Y167.973 E15.93489
G1 X82.457 Y167.409 E15.9702
G1 X81.838 Y166.083 E16.05197
G1 X81.437 Y165.185 E16.10692
G1 X81.241 Y164.715 E16.13537
G1 X80.966 Y164.001 E16.17813
G1 X80.565 Y162.903 E16.24344
G1 X80.268 Y162.036 E16.29465
G1 X80.1 Y161.501 E16.32598
G1 X79.75 Y160.269 E16.39755
G1 X79.514 Y159.395 E16.44813
G1 X79.366 Y158.767 E16.48419
G1 X79.027 Y157.1 E16.57924
G1 X78.864 Y156.201 E16.63029
G1 X78.772 Y155.589 E16.66487
G1 X78.609 Y154.239 E16.74086
G1 X78.492 Y153.063 E16.80689
G1 X78.451 Y152.478 E16.83966
G1 X78.401 Y151.247 E16.9085
G1 X78.359 Y149.007 E17.03369
G1 X78.362 Y85.751 E20.56824
G1 X78.406 Y83.655 E20.68539
G1 X78.476 Y82.185 E20.76762
G1 X78.528 Y81.53 E20.80434
G1 X78.717 Y79.858 E20.89836
G1 X78.815 Y79.123 E20.93979
G1 X78.995 Y78.054 E21.00036
G0 F6000 X79.71 Y76.92
G1 F1200 X79.883 Y76.115 E21.04637
G1 X80.037 Y75.496 E21.08201
G1 X80.491 Y73.884 E21.17559
G1 X80.767 Y72.985 E21.22814
G1 X80.945 Y72.454 E21.25943
G1 X81.375 Y71.282 E21.32919
G1 X81.684 Y70.472 E21.37763
G1 X81.879 Y69.999 E21.40622
G1 X82.175 Y69.33 E21.4471
G1 X82.602 Y68.404 E21.50407
G1 X82.965 Y67.647 E21.55099
G1 X83.227 Y67.137 E21.58302
G1 X83.95 Y65.823 E21.66683
G1 X84.491 Y64.891 E21.72704
G1 X84.81 Y64.379 E21.76075
G1 X85.606 Y63.183 E21.84103
G1 X86.288 Y62.207 E21.90756
G1 X86.611 Y61.772 E21.93783
G1 X87.378 Y60.794 E22.00728
G1 X88.059 Y59.958 E22.06753
G1 X88.454 Y59.503 E22.1012
G1 X89.474 Y58.393 E22.18543
G1 X90.002 Y57.838 E22.22824
G1 X90.442 Y57.402 E22.26285
G1 X91.68 Y56.247 E22.35745
G1 X92.208 Y55.772 E22.39714
G1 X92.683 Y55.371 E22.43187
G1 X94.012 Y54.315 E22.52672
G1 X94.938 Y53.62 E22.59142
G1 X95.326 Y53.348 E22.61789
G1 X96.515 Y52.55 E22.69791
G1 X97.186 Y52.117 E22.74253
G1 X97.717 Y51.798 E22.77714
G1 X99.105 Y51.017 E22.86614
G1 X99.746 Y50.67 E22.90686
G1 X100.291 Y50.394 E22.941
G1 X101.85 Y49.668 E23.0371
G1 X102.644 Y49.319 E23.08556
G1 X103.205 Y49.093 E23.11935
G1 X104.635 Y48.562 E23.20459
G1 X105.694 Y48.198 E23.26716
G1 X106.359 Y47.995 E23.30601
G1 X107.551 Y47.659 E23.37521
G1 X108.363 Y47.445 E23.42213
G1 X108.96 Y47.305 E23.4564
G1 X110.485 Y46.999 E23.54331
G1 X111.37 Y46.839 E23.59356
G1 X111.97 Y46.749 E23.62746
G1 X113.487 Y46.568 E23.71283
G1 X114.224 Y46.492 E23.75423
G1 X114.714 Y46.453 E23.78169
G1 X115.484 Y46.411 E23.82478
G1 X116.599 Y46.369 E23.88713
G1 X117.421 Y46.352 E23.93307
G1 X118.015 Y46.357 E23.96626
G1 X119.637 Y46.418 E24.05696
G1 X120.495 Y46.469 E24.10499
G1 X121.069 Y46.518 E24.13718
G1 X122.352 Y46.665 E24.20934
G1 X123.466 Y46.813 E24.27213
G1 X124.08 Y46.915 E24.30691
G1 X125.561 Y47.206 E24.39125
G1 X126.364 Y47.378 E24.43713
G1 X126.993 Y47.534 E24.47334
G1 X128.545 Y47.97 E24.56342
G1 X129.635 Y48.305 E24.62714
G1 X130.392 Y48.571 E24.67197
G1 X131.962 Y49.159 E24.76565
G1 X132.625 Y49.433 E24.80574
G1 X134.241 Y50.171 E24.90501
G1 X135.009 Y50.543 E24.95269
G1 X135.529 Y50.813 E24.98543
G1 X136.856 Y51.551 E25.07027
G1 X137.46 Y51.9 E25.10925
G1 X137.911 Y52.176 E25.1388
G1 X138.403 Y52.495 E25.17156
G1 X139.934 Y53.531 E25.27485
G1 X140.347 Y53.826 E25.30321
G1 X140.755 Y54.133 E25.33174
G1 X141.853 Y54.995 E25.40974
G1 X142.54 Y55.556 E25.45931
G1 X143.003 Y55.959 E25.4936
G1 X143.974 Y56.851 E25.56728
G1 X144.65 Y57.491 E25.61929
G1 X145.099 Y57.944 E25.65493
G1 X146.268 Y59.2 E25.75081
G1 X146.848 Y59.851 E25.79953
G1 X147.235 Y60.31 E25.83308
G1 X148.182 Y61.509 E25.91845
G1 X148.884 Y62.444 E25.98378
G1 X149.271 Y63 E26.02163
G1 X149.946 Y64.011 E26.08956
G1 X150.385 Y64.691 E26.13479
G1 X150.703 Y65.217 E26.16913
G1 X151.471 Y66.579 E26.2565
G1 X152.018 Y67.609 E26.32167
G1 X152.303 Y68.197 E26.35818
G1 X152.845 Y69.377 E26.43074
G1 X153.176 Y70.13 E26.4767
G1 X153.401 Y70.687 E26.51026
G1 X153.981 Y72.253 E26.60358
G1 X154.274 Y73.108 E26.65408
G1 X154.438 Y73.63 E26.68465
G1 X154.788 Y74.858 E26.756
G1 X155.057 Y75.873 E26.81467
G1 X155.197 Y76.472 E26.84905
G1 X155.509 Y78.026 E26.93761
G1 X155.669 Y78.928 E26.9888
G1 X155.754 Y79.499 E27.02106
G1 X155.93 Y80.968 E27.10373
G1 X156.008 Y81.714 E27.14564
G1 X156.052 Y82.292 E27.17803
G1 X156.118 Y83.753 E27.25975
G1 X156.161 Y85.993 E27.38494
G1 X156.16 Y117.37 E29.13819
G1 X156.18 Y119.502 E29.25733
G1 X156.18 Y133.122 E30.01837
G1 X156.161 Y135.153 E30.13186
G1 X156.157 Y149.286 E30.92157
G1 X156.116 Y151.316 E31.03503
G1 X156.032 Y152.977 E31.12796
G1 X155.978 Y153.616 E31.16379
G1 X155.801 Y155.131 E31.24902
G1 X155.688 Y155.96 E31.29577
G1 X155.591 Y156.544 E31.32885
G1 X155.3 Y158.031 E31.41351
G1 X155.125 Y158.853 E31.46047
G1 X154.967 Y159.492 E31.49725
G1 X154.526 Y161.058 E31.58816
G1 X154.235 Y162.009 E31.64373
G1 X154.055 Y162.546 E31.67538
G1 X153.625 Y163.718 E31.74513
G1 X153.321 Y164.516 E31.79285
G1 X153.072 Y165.113 E31.82899
G1 X152.44 Y166.502 E31.91426
G1 X152.051 Y167.32 E31.96488
G1 X151.84 Y167.738 E31.99104
G1 X151.485 Y168.398 E32.03292
G1 X151.018 Y169.233 E32.08637
G1 X150.526 Y170.081 E32.14116
G1 X150.193 Y170.615 E32.17632
G1 X149.293 Y171.967 E32.26707
G1 X148.664 Y172.86 E32.32811
G1 X148.231 Y173.431 E32.36815
G1 X147.509 Y174.347 E32.43332
G1 X146.944 Y175.038 E32.4832
G1 X146.541 Y175.503 E32.51758
G1 X145.649 Y176.474 E32.59125
G1 X145.02 Y177.139 E32.6424
G1 X144.568 Y177.589 E32.67804
G1 X143.493 Y178.594 E32.76027
G1 X142.648 Y179.349 E32.82359
G1 X142.186 Y179.737 E32.8573
G1 X141.001 Y180.675 E32.94175
G1 X140.077 Y181.37 E33.00635
G1 X139.449 Y181.805 E33.04904
G1 X138.001 Y182.764 E33.14608
G1 X137.389 Y183.14 E33.18622
G1 X135.919 Y183.972 E33.2806
G1 X135.258 Y184.33 E33.32261
G1 X134.705 Y184.608 E33.35719
G1 X133.155 Y185.329 E33.45271
G1 X132.36 Y185.679 E33.50125
G1 X131.79 Y185.91 E33.53561
G1 X130.365 Y186.438 E33.62053
G1 X129.306 Y186.802 E33.6831
G1 X128.641 Y187.005 E33.72195
G1 X127.449 Y187.341 E33.79115
G1 X126.637 Y187.555 E33.83807
G1 X126.04 Y187.695 E33.87234
G1 X124.515 Y188.001 E33.95925
G1 X123.63 Y188.161 E34.0095
G1 X123.03 Y188.251 E34.0434
G1 X121.513 Y188.432 E34.12877
G1 X120.776 Y188.508 E34.17017
G1 X120.286 Y188.547 E34.19764
G1 X119.516 Y188.589 E34.24072
G1 X118.401 Y188.631 E34.30307
G1 X117.579 Y188.648 E34.34901
G1 X116.985 Y188.643 E34.3822
G1 X115.363 Y188.582 E34.4729
G1 X114.505 Y188.531 E34.52093
G1 X113.931 Y188.482 E34.55312
G1 X112.648 Y188.335 E34.62528
G1 X111.534 Y188.187 E34.68807
G1 X110.92 Y188.085 E34.72285
G1 X109.439 Y187.794 E34.80719
G1 X108.636 Y187.622 E34.85307
G1 X108.007 Y187.466 E34.88929
G1 X106.455 Y187.03 E34.97936
G1 X105.365 Y186.695 E35.04308
G1 X104.608 Y186.429 E35.08792
G1 X103.038 Y185.841 E35.18159
G1 X102.375 Y185.567 E35.22168
G1 X100.759 Y184.829 E35.32095
G1 X99.991 Y184.457 E35.36863
G1 X99.471 Y184.186 E35.40139
G1 X98.138 Y183.445 E35.48661
G1 X97.528 Y183.092 E35.52599
G1 X97.085 Y182.821 E35.55501
G1 X96.599 Y182.506 E35.58737
G1 X95.052 Y181.457 E35.69181
G1 X94.658 Y181.177 E35.71882
G1 X94.257 Y180.876 E35.74684
G1 X92.672 Y179.618 E35.85991
G1 X92.133 Y179.159 E35.89947
G1 X90.912 Y178.042 E35.99194
G1 X90.349 Y177.509 E36.03526
G1 X89.9 Y177.056 E36.0709
G1 X88.758 Y175.832 E36.16444
G1 X88.266 Y175.283 E36.20563
G1 X87.873 Y174.818 E36.23965
G1 X86.959 Y173.673 E36.32151
G1 X86.367 Y172.9 E36.37592
G1 X86.119 Y172.561 E36.39939
G1 X85.727 Y171.997 E36.43776
G1 X85.053 Y170.987 E36.50561
G1 X84.619 Y170.314 E36.55036
G1 X84.303 Y169.793 E36.58441
G1 X83.619 Y168.584 E36.66202
G1 X83.17 Y167.756 E36.71466
G1 X82.892 Y167.206 E36.74909
G1 X82.276 Y165.888 E36.83038
G1 X81.88 Y165 E36.88471
G1 X81.689 Y164.542 E36.91244
G1 X81.417 Y163.836 E36.95472
G1 X81.019 Y162.747 E37.0195
G1 X80.726 Y161.892 E37.07
G1 X80.562 Y161.37 E37.10058
G1 X80.213 Y160.144 E37.17181
G1 X79.981 Y159.285 E37.22152
G1 X79.836 Y158.671 E37.25678
G1 X79.499 Y157.015 E37.3512
G1 X79.339 Y156.13 E37.40146
G1 X79.249 Y155.531 E37.4353
G1 X79.087 Y154.191 E37.51072
G1 X78.971 Y153.029 E37.57598
G1 X78.931 Y152.458 E37.60796
G1 X78.881 Y151.238 E37.67619
G1 X78.839 Y149.007 E37.80087
G1 X78.842 Y85.761 E41.33487
G1 X78.885 Y83.678 E41.45129
G1 X78.954 Y82.223 E41.53268
G1 X79.005 Y81.584 E41.5685
G1 X79.193 Y79.921 E41.66201
G1 X79.288 Y79.203 E41.70248
G1 X79.466 Y78.148 E41.76227
G1 X79.71 Y76.92 E41.83222
G1 F2700 E36.83222
G0 F6000 X80.499 Y75.626
G1 F2700 E41.83222
G1 F1200 X80.95 Y74.025 E41.92516
G1 X81.222 Y73.138 E41.97701
G1 X81.396 Y72.619 E42.00759
G1 X81.823 Y71.453 E42.07698
G1 X82.128 Y70.655 E42.12471
G1 X82.318 Y70.193 E42.15262
G1 X82.611 Y69.531 E42.19308
G1 X83.035 Y68.611 E42.24968
G1 X83.392 Y67.866 E42.29584
G1 X83.648 Y67.368 E42.32713
G1 X84.365 Y66.064 E42.41028
