;FLAVOR:Marlin
;TIME:9936
;Filament used: 11.2328m
;Layer height: 0.28
;MINX:79.599
;MINY:47.111
;MINZ:0.28
;MAXX:155.401
;MAXY:187.889
;MAXZ:22.12
;TARGET_MACHINE.NAME:Creality Ender-3
;Generated with Cura_SteamEngine 5.9.0
M140 S65
M105
M190 S65
M104 S210
M105
M109 S210
M82 ;absolute extrusion mode
; Ender 3 Custom Start G-code
G92 E0 ; Reset Extruder
G28 ; Home all axes
G1 Z2.0 F3000 ; Move Z Axis up little to prevent scratching of Heat Bed
G1 X0.1 Y20 Z0.3 F5000.0 ; Move to start position
G1 X0.1 Y200.0 Z0.3 F1500.0 E15 ; Draw the first line
G1 X0.4 Y200.0 Z0.3 F5000.0 ; Move to side a little
G1 X0.4 Y20 Z0.3 F1500.0 E30 ; Draw the second line
G92 E0 ; Reset Extruder
G1 Z2.0 F3000 ; Move Z Axis up little to prevent scratching of Heat Bed
G1 X5 Y20 Z0.3 F5000.0 ; Move over to prevent blob squish
G92 E0
G92 E0
G1 F2700 E-5
;LAYER_COUNT:79
;LAYER:0
M107
G0 F6000 X80.138 Y78.718 Z0.28
;TYPE:SKIRT
G1 F2700 E0
G1 F1200 X80.449 Y77.107 E0.09168
G1 X80.648 Y76.194 E0.14389
G1 X80.799 Y75.592 E0.17857
G1 X81.195 Y74.179 E0.26057
G1 X81.395 Y73.514 E0.29937
G1 X81.55 Y73.036 E0.32745
G1 X81.838 Y72.224 E0.37559
G1 X82.372 Y70.805 E0.46031
G1 X82.641 Y70.157 E0.49951
G1 X83.321 Y68.662 E0.59129
G1 X83.633 Y68.012 E0.63157
G1 X83.907 Y67.481 E0.66496
G1 X84.686 Y66.069 E0.75507
G1 X85.074 Y65.402 E0.79819
G1 X85.324 Y64.994 E0.82492
G1 X85.762 Y64.319 E0.86989
G1 X86.651 Y63.005 E0.95853
G1 X86.988 Y62.536 E0.9908
G1 X87.479 Y61.896 E1.03588
G1 X88.475 Y60.647 E1.12514
G1 X88.939 Y60.106 E1.16497
G1 X90.069 Y58.87 E1.25854
G1 X90.536 Y58.38 E1.29637
G1 X90.98 Y57.939 E1.33133
G1 X92.034 Y56.954 E1.41194
G1 X92.69 Y56.364 E1.46124
G1 X93.157 Y55.969 E1.49542
G1 X94.402 Y54.975 E1.58444
G1 X95.039 Y54.488 E1.62924
G1 X95.538 Y54.129 E1.66359
G1 X96.704 Y53.338 E1.74232
G1 X97.468 Y52.84 E1.79328
G1 X97.893 Y52.579 E1.82115
G1 X98.615 Y52.161 E1.86776
G1 X99.991 Y51.403 E1.95555
G1 X100.608 Y51.088 E1.99426
G1 X101.882 Y50.488 E2.07294
G1 X102.942 Y50.019 E2.13771
G1 X103.515 Y49.787 E2.17225
G1 X104.865 Y49.287 E2.25269
G1 X106.029 Y48.889 E2.32143
G1 X106.791 Y48.662 E2.36586
G1 X108.343 Y48.236 E2.45579
G1 X108.885 Y48.103 E2.48697
G1 X109.614 Y47.945 E2.52865
G1 X110.653 Y47.742 E2.58781
G1 X111.541 Y47.582 E2.63822
G1 X112.133 Y47.495 E2.67166
G1 X113.375 Y47.342 E2.74158
G1 X114.473 Y47.232 E2.80324
G1 X115.067 Y47.19 E2.83652
G1 X116.572 Y47.128 E2.92068
G1 X117.437 Y47.111 E2.96903
G1 X118.037 Y47.115 E3.00255
G1 X119.476 Y47.169 E3.08302
G1 X120.218 Y47.209 E3.12454
G1 X120.83 Y47.26 E3.15885
G1 X122.465 Y47.443 E3.25078
G1 X123.17 Y47.537 E3.29052
G1 X123.772 Y47.636 E3.32461
G1 X125.333 Y47.936 E3.41343
G1 X126.105 Y48.101 E3.45754
G1 X126.727 Y48.252 E3.49331
G1 X128.271 Y48.681 E3.58285
G1 X128.983 Y48.893 E3.62436
G1 X129.558 Y49.084 E3.65822
G1 X131.068 Y49.63 E3.74794
G1 X131.769 Y49.9 E3.78991
G1 X132.343 Y50.141 E3.8247
G1 X133.899 Y50.85 E3.92024
G1 X134.706 Y51.243 E3.9704
G1 X135.222 Y51.513 E4.00294
G1 X136.4 Y52.17 E4.07831
G1 X137.076 Y52.562 E4.12197
G1 X137.485 Y52.811 E4.14873
G1 X138.126 Y53.224 E4.19134
G1 X139.031 Y53.831 E4.25223
G1 X139.751 Y54.334 E4.3013
G1 X140.234 Y54.691 E4.33487
G1 X141.188 Y55.439 E4.4026
G1 X141.912 Y56.024 E4.45461
G1 X142.384 Y56.43 E4.4894
G1 X143.454 Y57.405 E4.57029
G1 X144.121 Y58.037 E4.62163
G1 X144.555 Y58.476 E4.65613
G1 X145.528 Y59.515 E4.73567
G1 X146.131 Y60.184 E4.78599
G1 X146.531 Y60.656 E4.82056
G1 X147.52 Y61.895 E4.90915
G1 X148.011 Y62.537 E4.95431
G1 X148.374 Y63.04 E4.98897
G1 X149.268 Y64.363 E5.07819
G1 X149.656 Y64.961 E5.11802
G1 X149.921 Y65.393 E5.14634
G1 X150.339 Y66.115 E5.19296
G1 X151.097 Y67.487 E5.28054
G1 X151.363 Y68.004 E5.31303
G1 X151.725 Y68.761 E5.35992
G1 X152.368 Y70.181 E5.44702
G1 X152.594 Y70.717 E5.47952
G1 X152.888 Y71.483 E5.52537
G1 X153.429 Y72.981 E5.61436
G1 X153.61 Y73.525 E5.6464
G1 X153.836 Y74.286 E5.69075
G1 X154.257 Y75.816 E5.77942
G1 X154.394 Y76.372 E5.81142
G1 X154.551 Y77.097 E5.85287
G1 X154.757 Y78.147 E5.91266
G1 X154.918 Y79.041 E5.96342
G1 X155.007 Y79.638 E5.99715
G1 X155.18 Y81.082 E6.07841
G1 X155.267 Y81.96 E6.12771
G1 X155.31 Y82.56 E6.16132
G1 X155.359 Y83.764 E6.22865
G1 X155.401 Y86.002 E6.35373
G1 X155.398 Y149.255 E9.88812
G1 X155.35 Y151.472 E10.01203
G1 X155.297 Y152.631 E10.07685
G1 X155.253 Y153.205 E10.10902
G1 X155.162 Y154.078 E10.15807
G1 X154.973 Y155.588 E10.2431
G1 X154.865 Y156.271 E10.28174
G1 X154.606 Y157.629 E10.35899
G1 X154.395 Y158.619 E10.41555
G1 X154.248 Y159.224 E10.45034
G1 X153.877 Y160.567 E10.52819
G1 X153.618 Y161.446 E10.57939
G1 X153.467 Y161.916 E10.60698
G1 X153.18 Y162.727 E10.65505
G1 X152.632 Y164.184 E10.74203
G1 X152.409 Y164.731 E10.77504
G1 X152.109 Y165.408 E10.81641
G1 X151.652 Y166.394 E10.87714
G1 X151.259 Y167.202 E10.92734
G1 X151.003 Y167.694 E10.95833
G1 X150.308 Y168.942 E11.03815
G1 X149.688 Y169.987 E11.10605
G1 X149.242 Y170.677 E11.15196
G1 X148.37 Y171.965 E11.23887
G1 X148.028 Y172.442 E11.27166
G1 X147.519 Y173.109 E11.31855
G1 X146.524 Y174.354 E11.4076
G1 X146.072 Y174.882 E11.44644
G1 X145.096 Y175.953 E11.5274
G1 X144.463 Y176.621 E11.57883
G1 X144.022 Y177.059 E11.61356
G1 X142.971 Y178.041 E11.69393
G1 X142.135 Y178.786 E11.7565
G1 X141.681 Y179.166 E11.78958
G1 X140.598 Y180.025 E11.86682
G1 X139.961 Y180.512 E11.91162
G1 X139.462 Y180.871 E11.94597
G1 X138.296 Y181.662 E12.0247
G1 X137.532 Y182.16 E12.07566
G1 X137.107 Y182.421 E12.10353
G1 X136.385 Y182.839 E12.15015
G1 X135.009 Y183.597 E12.23793
G1 X134.392 Y183.912 E12.27664
G1 X133.118 Y184.512 E12.35532
G1 X132.058 Y184.981 E12.42009
G1 X131.485 Y185.213 E12.45463
G1 X130.135 Y185.713 E12.53508
G1 X128.971 Y186.111 E12.60381
G1 X128.209 Y186.338 E12.64824
G1 X126.657 Y186.764 E12.73817
G1 X126.115 Y186.897 E12.76935
G1 X125.386 Y187.055 E12.81103
G1 X124.347 Y187.258 E12.87019
G1 X123.459 Y187.418 E12.92061
G1 X122.867 Y187.505 E12.95404
G1 X121.625 Y187.658 E13.02396
G1 X120.527 Y187.768 E13.08562
G1 X119.933 Y187.81 E13.1189
G1 X118.433 Y187.871 E13.20278
G1 X117.563 Y187.889 E13.25141
G1 X116.963 Y187.885 E13.28493
G1 X115.526 Y187.831 E13.36528
G1 X114.782 Y187.791 E13.40692
G1 X114.169 Y187.74 E13.44129
G1 X112.534 Y187.557 E13.53322
G1 X111.829 Y187.463 E13.57296
G1 X111.229 Y187.365 E13.60693
G1 X109.871 Y187.106 E13.68418
G1 X108.881 Y186.895 E13.74074
G1 X108.276 Y186.748 E13.77553
G1 X106.933 Y186.377 E13.85338
G1 X106.02 Y186.107 E13.90658
G1 X105.439 Y185.915 E13.94077
G1 X104.129 Y185.442 E14.0186
G1 X103.237 Y185.102 E14.07194
G1 X102.657 Y184.859 E14.10708
G1 X101.101 Y184.149 E14.20264
G1 X100.296 Y183.757 E14.25268
G1 X99.779 Y183.488 E14.28524
G1 X98.57 Y182.814 E14.36258
G1 X97.914 Y182.433 E14.40497
G1 X97.515 Y182.189 E14.43111
G1 X96.874 Y181.776 E14.47371
G1 X95.969 Y181.169 E14.5346
G1 X95.249 Y180.666 E14.58368
G1 X94.767 Y180.31 E14.61716
G1 X93.791 Y179.545 E14.68646
G1 X93.089 Y178.977 E14.73691
G1 X92.61 Y178.567 E14.77214
G1 X91.548 Y177.598 E14.85247
G1 X90.878 Y176.961 E14.90413
G1 X90.44 Y176.519 E14.9389
G1 X89.326 Y175.325 E15.03015
G1 X88.862 Y174.807 E15.06901
G1 X88.46 Y174.332 E15.10378
G1 X87.477 Y173.1 E15.19185
G1 X86.989 Y172.462 E15.23673
G1 X86.621 Y171.953 E15.27182
G1 X85.716 Y170.613 E15.36218
G1 X85.335 Y170.024 E15.40137
G1 X85.076 Y169.602 E15.42904
G1 X84.661 Y168.885 E15.47533
G1 X83.904 Y167.513 E15.56289
G1 X83.635 Y166.994 E15.59555
G1 X83.303 Y166.3 E15.63854
G1 X82.87 Y165.356 E15.69657
G1 X82.519 Y164.559 E15.74523
G1 X82.285 Y163.981 E15.78008
G1 X81.776 Y162.608 E15.8619
G1 X81.538 Y161.928 E15.90216
G1 X81.389 Y161.472 E15.92896
G1 X81.182 Y160.777 E15.96948
G1 X80.889 Y159.73 E16.03023
G1 X80.669 Y158.894 E16.07854
G1 X80.535 Y158.316 E16.11169
G1 X80.28 Y157.046 E16.18407
G1 X80.082 Y155.955 E16.24603
G1 X79.993 Y155.36 E16.27964
G1 X79.823 Y153.936 E16.35978
G1 X79.748 Y153.226 E16.39967
G1 X79.703 Y152.629 E16.43313
G1 X79.64 Y151.211 E16.51244
G1 X79.599 Y148.997 E16.63617
G1 X79.601 Y85.779 E20.1686
G1 X79.653 Y83.448 E20.29889
G1 X79.705 Y82.34 E20.36087
G1 X79.747 Y81.793 E20.39152
G1 X79.835 Y80.946 E20.4391
G1 X80.029 Y79.398 E20.52628
G1 X80.138 Y78.718 E20.56476
G0 F6000 X80.609 Y78.809
G1 F1200 X80.918 Y77.209 E20.65581
G1 X81.114 Y76.31 E20.70723
G1 X81.261 Y75.722 E20.74109
G1 X81.655 Y74.317 E20.82263
G1 X81.851 Y73.663 E20.86078
G1 X82.003 Y73.196 E20.88822
G1 X82.287 Y72.393 E20.93581
G1 X82.816 Y70.989 E21.01965
G1 X83.078 Y70.356 E21.05793
G1 X83.754 Y68.869 E21.1492
G1 X84.059 Y68.232 E21.18866
G1 X84.327 Y67.713 E21.2213
G1 X85.101 Y66.31 E21.31084
G1 X85.483 Y65.653 E21.3533
G1 X85.727 Y65.255 E21.37939
G1 X86.159 Y64.588 E21.42379
G1 X87.041 Y63.285 E21.51171
G1 X87.369 Y62.828 E21.54314
G1 X87.854 Y62.195 E21.5877
G1 X88.84 Y60.959 E21.67605
G1 X89.293 Y60.43 E21.71497
G1 X90.417 Y59.201 E21.80803
G1 X90.874 Y58.721 E21.84506
G1 X91.308 Y58.29 E21.87924
G1 X92.355 Y57.311 E21.95933
G1 X93 Y56.73 E22.00784
G1 X93.456 Y56.344 E22.04122
G1 X94.694 Y55.356 E22.12973
G1 X95.32 Y54.877 E22.17377
G1 X95.807 Y54.526 E22.20731
G1 X96.966 Y53.74 E22.28556
G1 X97.719 Y53.249 E22.33579
G1 X98.134 Y52.994 E22.36301
G1 X98.847 Y52.581 E22.40905
G1 X100.209 Y51.83 E22.49596
G1 X100.812 Y51.522 E22.53379
G1 X102.076 Y50.927 E22.61186
G1 X103.122 Y50.464 E22.67577
G1 X103.682 Y50.237 E22.70954
G1 X105.02 Y49.741 E22.78927
G1 X106.166 Y49.349 E22.85695
G1 X106.918 Y49.125 E22.90079
G1 X108.458 Y48.702 E22.99003
G1 X108.987 Y48.572 E23.02047
G1 X109.706 Y48.416 E23.06158
G1 X110.738 Y48.214 E23.12034
G1 X111.612 Y48.057 E23.16996
G1 X112.191 Y47.971 E23.20267
G1 X113.423 Y47.82 E23.27202
G1 X114.507 Y47.711 E23.3329
G1 X115.087 Y47.67 E23.36539
G1 X116.582 Y47.608 E23.449
G1 X117.434 Y47.591 E23.49661
G1 X118.019 Y47.595 E23.5293
G1 X119.45 Y47.648 E23.60932
G1 X120.178 Y47.687 E23.65005
G1 X120.777 Y47.737 E23.68364
G1 X122.402 Y47.919 E23.77501
G1 X123.093 Y48.011 E23.81396
G1 X123.681 Y48.107 E23.84725
G1 X125.233 Y48.405 E23.93555
G1 X125.991 Y48.567 E23.97887
G1 X126.599 Y48.715 E24.01383
G1 X128.134 Y49.141 E24.10284
G1 X128.832 Y49.349 E24.14354
G1 X129.395 Y49.535 E24.17667
G1 X130.896 Y50.078 E24.26586
G1 X131.583 Y50.342 E24.30699
G1 X132.144 Y50.578 E24.341
G1 X133.689 Y51.282 E24.43587
G1 X134.484 Y51.669 E24.48527
G1 X134.988 Y51.932 E24.51704
G1 X136.159 Y52.585 E24.59196
G1 X136.826 Y52.972 E24.63504
G1 X137.225 Y53.215 E24.66115
G1 X137.859 Y53.623 E24.70328
G1 X138.756 Y54.225 E24.76364
G1 X139.466 Y54.72 E24.812
G1 X139.938 Y55.069 E24.8448
G1 X140.886 Y55.812 E24.9121
G1 X141.599 Y56.388 E24.96332
G1 X142.061 Y56.785 E24.99736
G1 X143.124 Y57.754 E25.07773
G1 X143.78 Y58.375 E25.12821
G1 X144.205 Y58.804 E25.16195
G1 X145.172 Y59.837 E25.24101
G1 X145.765 Y60.494 E25.29047
G1 X146.156 Y60.956 E25.32429
G1 X147.139 Y62.187 E25.41231
G1 X147.622 Y62.818 E25.45671
G1 X147.976 Y63.309 E25.49054
G1 X148.865 Y64.624 E25.57923
G1 X149.247 Y65.212 E25.61841
G1 X149.506 Y65.634 E25.64608
G1 X149.919 Y66.347 E25.69212
G1 X150.67 Y67.707 E25.77893
G1 X150.93 Y68.211 E25.81062
G1 X151.288 Y68.959 E25.85695
G1 X151.926 Y70.367 E25.94333
G1 X152.146 Y70.889 E25.97498
G1 X152.437 Y71.646 E26.0203
G1 X152.974 Y73.133 E26.10864
G1 X153.15 Y73.662 E26.13979
G1 X153.373 Y74.413 E26.18356
G1 X153.791 Y75.931 E26.27154
G1 X153.925 Y76.474 E26.30279
G1 X154.08 Y77.19 E26.34373
G1 X154.285 Y78.232 E26.40307
G1 X154.443 Y79.112 E26.45303
G1 X154.53 Y79.695 E26.48596
G1 X154.702 Y81.13 E26.56672
G1 X154.788 Y81.994 E26.61524
G1 X154.83 Y82.58 E26.64807
G1 X154.879 Y83.773 E26.71478
G1 X154.921 Y86.002 E26.83935
G1 X154.918 Y149.245 E30.37319
G1 X154.871 Y151.45 E30.49642
G1 X154.818 Y152.595 E30.56047
G1 X154.776 Y153.155 E30.59185
G1 X154.686 Y154.018 E30.64033
G1 X154.499 Y155.513 E30.72452
G1 X154.393 Y156.181 E30.76231
G1 X154.136 Y157.529 E30.83899
G1 X153.929 Y158.505 E30.89474
G1 X153.785 Y159.096 E30.92873
G1 X153.417 Y160.431 E31.00611
G1 X153.161 Y161.299 E31.05667
G1 X153.014 Y161.756 E31.0835
G1 X152.731 Y162.558 E31.13102
G1 X152.187 Y164.003 E31.2173
G1 X151.97 Y164.536 E31.24945
G1 X151.673 Y165.206 E31.2904
G1 X151.22 Y166.184 E31.35063
G1 X150.833 Y166.98 E31.40008
G1 X150.577 Y167.472 E31.43107
G1 X149.895 Y168.697 E31.50942
G1 X149.285 Y169.726 E31.57626
G1 X148.844 Y170.408 E31.62164
G1 X147.98 Y171.685 E31.70779
G1 X147.646 Y172.151 E31.73983
G1 X147.144 Y172.809 E31.78607
G1 X146.159 Y174.042 E31.87425
G1 X145.717 Y174.559 E31.91226
G1 X144.747 Y175.623 E31.99271
G1 X144.125 Y176.28 E32.04327
G1 X143.694 Y176.708 E32.07721
G1 X142.651 Y177.683 E32.15698
G1 X141.827 Y178.418 E32.21868
G1 X141.383 Y178.79 E32.25105
G1 X140.306 Y179.644 E32.32785
G1 X139.68 Y180.123 E32.3719
G1 X139.193 Y180.474 E32.40544
G1 X138.034 Y181.26 E32.48369
G1 X137.281 Y181.751 E32.53392
G1 X136.866 Y182.006 E32.56114
G1 X136.153 Y182.419 E32.60718
G1 X134.791 Y183.17 E32.69408
G1 X134.188 Y183.478 E32.73192
G1 X132.924 Y184.073 E32.80998
G1 X131.878 Y184.536 E32.8739
G1 X131.318 Y184.763 E32.90766
G1 X129.98 Y185.259 E32.9874
G1 X128.834 Y185.651 E33.05508
G1 X128.082 Y185.875 E33.09892
G1 X126.542 Y186.298 E33.18816
G1 X126.013 Y186.428 E33.2186
G1 X125.294 Y186.584 E33.25971
G1 X124.262 Y186.786 E33.31847
G1 X123.388 Y186.943 E33.36808
G1 X122.809 Y187.029 E33.40079
G1 X121.577 Y187.18 E33.47015
G1 X120.493 Y187.289 E33.53102
G1 X119.913 Y187.33 E33.56351
G1 X118.418 Y187.392 E33.64712
G1 X117.566 Y187.409 E33.69474
G1 X116.981 Y187.405 E33.72743
G1 X115.552 Y187.352 E33.80733
G1 X114.822 Y187.313 E33.84818
G1 X114.222 Y187.263 E33.88182
G1 X112.597 Y187.081 E33.97319
G1 X111.906 Y186.989 E34.01214
G1 X111.319 Y186.893 E34.04538
G1 X109.971 Y186.636 E34.12205
G1 X108.995 Y186.429 E34.1778
G1 X108.404 Y186.285 E34.21179
G1 X107.069 Y185.917 E34.28917
G1 X106.17 Y185.651 E34.34156
G1 X105.602 Y185.464 E34.37497
G1 X104.3 Y184.994 E34.45232
G1 X103.422 Y184.659 E34.50483
G1 X102.856 Y184.422 E34.53911
G1 X101.311 Y183.718 E34.63398
G1 X100.517 Y183.331 E34.68334
G1 X100.013 Y183.069 E34.71508
G1 X98.811 Y182.399 E34.79197
G1 X98.165 Y182.024 E34.83371
G1 X97.775 Y181.785 E34.85927
G1 X97.141 Y181.377 E34.9014
G1 X96.244 Y180.775 E34.96176
G1 X95.534 Y180.28 E35.01012
G1 X95.063 Y179.932 E35.04285
G1 X94.093 Y179.172 E35.1117
G1 X93.401 Y178.612 E35.16144
G1 X92.934 Y178.212 E35.1958
G1 X91.872 Y177.243 E35.27613
G1 X91.219 Y176.624 E35.32641
G1 X90.791 Y176.191 E35.36043
G1 X89.683 Y175.004 E35.45116
G1 X89.228 Y174.497 E35.48923
G1 X88.835 Y174.033 E35.5232
G1 X87.858 Y172.808 E35.61076
G1 X87.378 Y172.181 E35.65488
G1 X87.019 Y171.684 E35.68914
G1 X86.119 Y170.352 E35.77896
G1 X85.744 Y169.773 E35.81751
G1 X85.491 Y169.361 E35.84452
G1 X85.081 Y168.653 E35.89024
G1 X84.33 Y167.292 E35.9771
G1 X84.068 Y166.787 E36.00889
G1 X83.739 Y166.1 E36.05145
G1 X83.309 Y165.163 E36.10905
G1 X82.964 Y164.379 E36.15692
G1 X82.735 Y163.814 E36.19098
G1 X82.229 Y162.449 E36.27233
G1 X81.994 Y161.779 E36.312
G1 X81.849 Y161.335 E36.3381
G1 X81.644 Y160.648 E36.37816
G1 X81.353 Y159.608 E36.4385
G1 X81.137 Y158.785 E36.48605
G1 X81.006 Y158.221 E36.5184
G1 X80.752 Y156.96 E36.59028
G1 X80.557 Y155.884 E36.65138
G1 X80.47 Y155.303 E36.68421
G1 X80.3 Y153.886 E36.76395
G1 X80.227 Y153.19 E36.80306
G1 X80.183 Y152.608 E36.83567
G1 X80.12 Y151.202 E36.91431
G1 X80.079 Y148.997 E37.03754
G1 X80.081 Y85.79 E40.56936
G1 X80.132 Y83.471 E40.69897
G1 X80.184 Y82.377 E40.76017
G1 X80.226 Y81.83 E40.79082
G1 X80.311 Y81.006 E40.83711
G1 X80.503 Y79.474 E40.92338
G1 X80.609 Y78.809 E40.96101
G0 F6000 X81.08 Y78.9
G1 F1200 X81.387 Y77.311 E41.05144
G1 X81.58 Y76.426 E41.10205
G1 X81.723 Y75.852 E41.13511
G1 X82.115 Y74.454 E41.21624
G1 X82.307 Y73.811 E41.25373
G1 X82.455 Y73.356 E41.28047
G1 X82.736 Y72.562 E41.32753
G1 X83.259 Y71.173 E41.41046
G1 X83.515 Y70.555 E41.44784
G1 X84.187 Y69.076 E41.53861
G1 X84.486 Y68.452 E41.57728
G1 X84.747 Y67.945 E41.60914
G1 X85.516 Y66.551 E41.6981
G1 X85.892 Y65.904 E41.73991
G1 X86.13 Y65.516 E41.76535
G1 X86.556 Y64.857 E41.80919
G1 X87.431 Y63.565 E41.89639
